editor/icons/KeyTrackScale.svg

<svg height="10" viewBox="0 0 10 10" width="10" xmlns="http://www.w3.org/2000/svg"><ellipse cx="-.88987" cy="6.095995" fill="none" rx="1.249577" ry="1.086747"/><path d="m5.5742494.94786723a.58774585.58774585 0 0 0 -.5877458.58774577.58774585.58774585 0 0 0 .5877458.5877459h1.519852l-.7599554.7599553.8311314.8311314.7599554-.7599553v1.5198519a.58774585.58774585 0 0 0 .5877459.5877459.58774585.58774585 0 0 0 .5877458-.5877459v-2.9387292a.58780462.58780462 0 0 0 -.5877458-.58774577zm-.5877458 2.93872917a1.1754917 1.1754917 0 0 0 -1.1754917 1.1754917 1.1754917 1.1754917 0 0 0 1.1754917 1.1754917 1.1754917 1.1754917 0 0 0 1.1754917-1.1754917 1.1754917 1.1754917 0 0 0 -1.1754917-1.1754917zm-3.5264751 1.1754917a.58774585.58774585 0 0 0 -.5877459.5877458v2.9387299a.58780462.58780462 0 0 0 .5877459.5877454h2.9387292a.58774585.58774585 0 0 0 .5877459-.5877454.58774585.58774585 0 0 0 -.5877459-.5877465h-1.519852l.7599554-.7599554-.8311314-.8311314-.7599554.7599554v-1.519852a.58774585.58774585 0 0 0 -.5877458-.5877458z" fill="#eac840" stroke-width=".587745"/></svg>

<?xml version="1.0" encoding="UTF-8" standalone="no"?>
<svg
   height="10"
   viewBox="0 0 10 10"
   width="10"
   version="1.1"
   id="svg12"
   sodipodi:docname="KeyTrackScale.svg"
   inkscape:version="1.1 (1:1.1+202106031931+af4d65493e)"
   xmlns:inkscape="http://www.inkscape.org/namespaces/inkscape"
   xmlns:sodipodi="http://sodipodi.sourceforge.net/DTD/sodipodi-0.dtd"
   xmlns="http://www.w3.org/2000/svg"
   xmlns:svg="http://www.w3.org/2000/svg">
  <defs
     id="defs16" />
  <sodipodi:namedview
     id="namedview14"
     pagecolor="#ffffff"
     bordercolor="#666666"
     borderopacity="1.0"
     inkscape:pageshadow="2"
     inkscape:pageopacity="0.0"
     inkscape:pagecheckerboard="0"
     showgrid="false"
     inkscape:zoom="42.2"
     inkscape:cx="1.9075829"
     inkscape:cy="5.8175355"
     inkscape:window-width="1848"
     inkscape:window-height="1016"
     inkscape:window-x="72"
     inkscape:window-y="27"
     inkscape:window-maximized="1"
     inkscape:current-layer="svg12" />
  <ellipse
     style="fill:none;fill-opacity:0.401212;stroke:none;stroke-width:4.7811;stroke-linejoin:round"
     id="path921"
     cx="-0.88986981"
     cy="6.0959954"
     rx="1.2495773"
     ry="1.0867468" />
  <path
     d="M 5.5742494,0.94786723 A 0.58774585,0.58774585 0 0 0 4.9865036,1.535613 0.58774585,0.58774585 0 0 0 5.5742494,2.1233589 h 1.519852 L 6.334146,2.8833142 7.1652774,3.7144456 7.9252328,2.9544903 V 4.4743422 A 0.58774585,0.58774585 0 0 0 8.5129787,5.0620881 0.58774585,0.58774585 0 0 0 9.1007245,4.4743422 V 1.535613 A 0.58780462,0.58780462 0 0 0 8.5129787,0.94786723 Z M 4.9865036,3.8865964 A 1.1754917,1.1754917 0 0 0 3.8110119,5.0620881 1.1754917,1.1754917 0 0 0 4.9865036,6.2375798 1.1754917,1.1754917 0 0 0 6.1619953,5.0620881 1.1754917,1.1754917 0 0 0 4.9865036,3.8865964 Z M 1.4600285,5.0620881 A 0.58774585,0.58774585 0 0 0 0.8722826,5.6498339 V 8.5885638 A 0.58780462,0.58780462 0 0 0 1.4600285,9.1763092 H 4.3987577 A 0.58774585,0.58774585 0 0 0 4.9865036,8.5885638 0.58774585,0.58774585 0 0 0 4.3987577,8.0008173 H 2.8789057 L 3.6388611,7.2408619 2.8077297,6.4097305 2.0477743,7.1696859 V 5.6498339 A 0.58774585,0.58774585 0 0 0 1.4600285,5.0620881 Z"
     fill="#e0e0e0"
     fill-opacity="0.99608"
     id="path7"
     style="fill:#eac840;fill-opacity:1;stroke-width:0.587745" />
</svg>
